assets/images/burger.svg

<?xml version="1.0" encoding="UTF-8"?>
<svg
    width="100%"
    height="12px"
    viewBox="0 0 11 12"
    version="1.1"
    xmlns="http://www.w3.org/2000/svg"
    xmlns:xlink="http://www.w3.org/1999/xlink"
>
    <title>Combined Shape</title>
    <g
        id="Page-1"
        stroke="none"
        stroke-width="1"
        fill="none"
        fill-rule="evenodd"
    >
        <g
            id="Логистика-Copy-37"
            transform="translate(-270.000000, -316.000000)"
            fill="#A6B7D4"
        >
            <g
                id="Group-2-Copy-7"
                transform="translate(254.000000, 222.000000)"
            >
                <g
                    id="Group-Copy-3"
                    transform="translate(1.000000, 78.000000)"
                >
                    <g
                        id="Group-11"
                        transform="translate(15.000000, 15.000000)"
                    >
                        <path
                            d="M1,1 L10,1 C10.5522847,1 11,1.44771525 11,2 C11,2.55228475 10.5522847,3 10,3 L1,3 C0.44771525,3 5.11724585e-16,2.55228475 0,2 C-6.76353751e-17,1.44771525 0.44771525,1 1,1 Z M1,6 L10,6 C10.5522847,6 11,6.44771525 11,7 C11,7.55228475 10.5522847,8 10,8 L1,8 C0.44771525,8 5.11724585e-16,7.55228475 0,7 C-6.76353751e-17,6.44771525 0.44771525,6 1,6 Z M1,11 L10,11 C10.5522847,11 11,11.4477153 11,12 C11,12.5522848 10.5522847,13 10,13 L1,13 C0.44771525,13 5.11724585e-16,12.5522848 0,12 C-6.76353751e-17,11.4477153 0.44771525,11 1,11 Z"
                            id="Combined-Shape"
                        ></path>
                    </g>
                </g>
            </g>
        </g>
    </g>
</svg>

<svg
    width="11px"
    height="12px"
    viewBox="0 0 11 12"
    xmlns="http://www.w3.org/2000/svg"
>
    <path
        fill="#A6B7D4"
        d="M1 1h9c.552 0 1 .448 1 1s-.448 1-1 1H1C.448 3 0 2.552 0 2s.448-1 1-1zm0 5h9c.552 0 1 .448 1 1s-.448 1-1 1H1C.448 8 0 7.552 0 7s.448-1 1-1zm0 5h9c.552 0 1 .448 1 1s-.448 1-1 1H1c-.552 0-1-.448-1-1s.448-1 1-1z"
    />
</svg>
